X:153
T:Tommy Peoples'
M:4/4
L:1/8
R:reel
K:Gmaj
G2BG cGBG | ADDE FGAF | G2BG cGBG |1 Addc BGGF :|2 Addc BGGf |:
g2dg egde | g2bg fgaf | g2dg egdB |1 cAdc BGGf :|2 cAdc BGGF |]
